assets/svg/list.svg

<svg width="50px" height="50px" viewBox="0 0 50 50" version="1.1" xmlns="http://www.w3.org/2000/svg" xmlns:xlink="http://www.w3.org/1999/xlink">
    <defs>
        <path d="M4.89407618,46.5174263 C5.15518284,46.4653537 5.40810668,46.3902205 5.65359157,46.2860754 C5.90651541,46.1826741 6.14456137,46.0562122 6.36029052,45.9074335 C6.59089754,45.7579109 6.79918776,45.5875592 6.98516117,45.4015858 C7.74318877,44.6420704 8.18282991,43.5864854 8.18282991,42.5070957 C8.18282991,42.2400379 8.15307416,41.9722362 8.10100161,41.7111296 C8.04818516,41.4507668 7.97453969,41.1911479 7.86965069,40.945663 C7.76624948,40.7001781 7.63978756,40.4613883 7.49026494,40.2389641 C7.34223011,40.015796 7.17113457,39.8067619 6.98516117,39.6140934 C6.79918776,39.42812 6.59089754,39.2562806 6.36698556,39.1075019 C6.14456137,38.959467 5.90651541,38.8330051 5.66103051,38.7281161 C5.40810668,38.6314099 5.15518284,38.5495816 4.89407618,38.498253 C3.55581154,38.2297074 2.14985258,38.6686046 1.19766874,39.6140934 C1.01169533,39.8067619 0.8405998,40.015796 0.691821074,40.2389641 C0.542298455,40.4613883 0.415836538,40.7001781 0.312435324,40.945663 C0.215729152,41.1911479 0.133900853,41.4507668 0.0818282991,41.7111296 C0.0297557451,41.9722362 0,42.2400379 0,42.5070957 C0,43.5864854 0.438897241,44.6420704 1.19766874,45.4015858 C1.96387918,46.1603573 3.01276919,46.5985107 4.09141495,46.5985107 C4.35921666,46.5985107 4.62701837,46.5687549 4.89407618,46.5174263 M4.89407618,29.3104228 C5.15518284,29.2590941 5.40810668,29.1765219 5.66103051,29.0805596 C5.90651541,28.9764145 6.14456137,28.8499526 6.36698556,28.7011739 C6.59089754,28.5523952 6.79918776,28.3805557 6.98516117,28.1945823 C7.7513716,27.4291158 8.18282991,26.3727868 8.18282991,25.3008361 C8.18282991,24.2221904 7.7513716,23.1658614 6.98516117,22.4078338 C6.79918776,22.2136776 6.59089754,22.0433259 6.36698556,21.8938033 C6.14456137,21.7532074 5.90651541,21.6260016 5.66103051,21.5218565 C5.40810668,21.4184553 5.15518284,21.343322 4.89407618,21.2838105 C4.3666556,21.1796654 3.82361325,21.1796654 3.29544877,21.2838105 C3.03434211,21.343322 2.77397934,21.4184553 2.52849444,21.5218565 C2.28300954,21.6260016 2.04570748,21.7532074 1.82253939,21.8938033 C1.59862741,22.0433259 1.39108108,22.2136776 1.19766874,22.4078338 C0.438897241,23.1658614 0,24.2221904 0,25.3008361 C0,25.5693817 0.0297557451,25.8364395 0.0818282991,26.0975462 C0.133900853,26.3571651 0.215729152,26.6182717 0.312435324,26.8630127 C0.415836538,27.1084976 0.542298455,27.3465436 0.691821074,27.5697117 C0.8405998,27.7928798 1.01169533,28.00117 1.19766874,28.1945823 C1.39108108,28.3805557 1.59862741,28.5523952 1.82253939,28.7011739 C2.04570748,28.8499526 2.28300954,28.9764145 2.52849444,29.0805596 C2.77397934,29.1765219 3.03434211,29.2590941 3.29544877,29.3104228 C3.55581154,29.3624953 3.82361325,29.3922511 4.09141495,29.3922511 C4.35921666,29.3922511 4.62701837,29.3624953 4.89407618,29.3104228 M6.98516117,10.9808838 C7.74318877,10.2228562 8.18282991,9.16578333 8.18282991,8.08788146 C8.18282991,7.01593074 7.74318877,5.95960179 6.98516117,5.20157418 C6.79918776,5.00741795 6.59089754,4.8370663 6.36698556,4.68828758 C6.14456137,4.53876496 5.90651541,4.41230304 5.66103051,4.31634077 C5.40810668,4.21219566 5.15518284,4.13036736 4.89407618,4.07755091 C4.3666556,3.9741497 3.82361325,3.9741497 3.29544877,4.07755091 C3.03434211,4.13036736 2.77397934,4.21219566 2.52849444,4.31634077 C2.28300954,4.41230304 2.04570748,4.53876496 1.82253939,4.68828758 C1.59862741,4.8370663 1.39108108,5.00741795 1.19766874,5.20157418 C0.438897241,5.95960179 0,7.01593074 0,8.08788146 C0,9.16578333 0.438897241,10.2228562 1.19766874,10.9808838 C1.96387918,11.7478381 3.01276919,12.1867353 4.09141495,12.1867353 C5.17006071,12.1867353 6.22638967,11.7478381 6.98516117,10.9808838 M49.9970907,42.5085835 C49.9970907,40.2493786 48.1648807,38.4171686 45.9056758,38.4171686 L17.0173106,38.4171686 C14.7581057,38.4171686 12.9258957,40.2493786 12.9258957,42.5085835 C12.9258957,44.7677885 14.7581057,46.5999985 17.0173106,46.5999985 L45.9056758,46.5999985 C48.1648807,46.5999985 49.9970907,44.7677885 49.9970907,42.5085835 M49.9970907,25.3000922 C49.9970907,23.0401434 48.1648807,21.2086773 45.9056758,21.2086773 L17.0173106,21.2086773 C14.7581057,21.2086773 12.9258957,23.0401434 12.9258957,25.3000922 C12.9258957,27.5592972 14.7581057,29.3915072 17.0173106,29.3915072 L45.9056758,29.3915072 C48.1648807,29.3915072 49.9970907,27.5592972 49.9970907,25.3000922 M45.9056758,12.1830159 L17.0173106,12.1830159 C14.7581057,12.1830159 12.9258957,10.3508059 12.9258957,8.09160093 C12.9258957,5.83239598 14.7581057,4.00018597 17.0173106,4.00018597 L45.9056758,4.00018597 C48.1648807,4.00018597 49.9970907,5.83239598 49.9970907,8.09160093 C49.9970907,10.3508059 48.1648807,12.1830159 45.9056758,12.1830159" id="path-1"></path>
    </defs>
</svg>

<svg width="50" height="50" xmlns="http://www.w3.org/2000/svg"><defs><path d="M4.894 46.517c.261-.052.514-.127.76-.23.253-.104.49-.23.706-.38.23-.15.44-.32.625-.505a4.13 4.13 0 001.198-2.895c0-.267-.03-.535-.082-.796a3.947 3.947 0 00-.231-.765 4.17 4.17 0 00-.38-.707 4.43 4.43 0 00-.505-.625 4.041 4.041 0 00-.618-.506 4.386 4.386 0 00-.706-.38 4.672 4.672 0 00-.767-.23 4.14 4.14 0 00-3.696 1.116 4.488 4.488 0 00-.506.625 4.17 4.17 0 00-.38.707 4.539 4.539 0 00-.23.765 4.082 4.082 0 00-.082.796c0 1.08.439 2.135 1.198 2.895a4.137 4.137 0 002.893 1.197c.268 0 .536-.03.803-.082m0-17.207c.261-.05.514-.133.767-.23.246-.104.484-.23.706-.379.224-.149.432-.32.618-.506a4.09 4.09 0 000-5.787 3.69 3.69 0 00-.618-.514 4.944 4.944 0 00-.706-.372 4.856 4.856 0 00-.767-.238 4.129 4.129 0 00-1.599 0c-.26.06-.521.134-.767.238a4.984 4.984 0 00-.705.372A4.122 4.122 0 000 25.3c0 .268.03.535.082.797.052.26.134.52.23.765.104.245.23.484.38.707.149.223.32.431.506.625a4.302 4.302 0 001.33.886c.246.096.506.178.767.23.26.051.529.081.796.081.268 0 .536-.03.803-.082m2.091-18.33a4.126 4.126 0 001.198-2.892c0-1.072-.44-2.128-1.198-2.886a3.65 3.65 0 00-.618-.514 3.662 3.662 0 00-.706-.372 4.19 4.19 0 00-.767-.238 4.158 4.158 0 00-1.599 0 4.019 4.019 0 00-.767.238 4.015 4.015 0 00-1.33.885A4.118 4.118 0 000 8.089c0 1.078.439 2.135 1.198 2.893a4.111 4.111 0 002.893 1.206 4.098 4.098 0 002.894-1.206m43.012 31.528a4.092 4.092 0 00-4.091-4.092H17.017a4.092 4.092 0 000 8.183h28.889a4.092 4.092 0 004.091-4.091m0-17.209a4.091 4.091 0 00-4.091-4.091H17.017a4.091 4.091 0 000 8.183h28.889a4.092 4.092 0 004.091-4.092m-4.091-13.117H17.017a4.092 4.092 0 010-8.183h28.889a4.092 4.092 0 010 8.183" id="path-1"/></defs></svg>
